X: 72
T: Paddy on the Turnpike
B: canberra pickers and fiddlers
B: old time tunes update
B: tunes
M:C
L:1/8
Q: 1/4=100
K:A
V:1 
A2cA B2AF|E3F ABce|a2ge faec|cBBA B2cB|!
A2cA B2AF|E3F ABce|a2ge faec|BABc A4:|!
E2GE BEGE|A2cA eAcA|B2^dB fBdB|e2ge bege|!
agae faec|defg a2fg|a2ge faec|BABc A4:|!
% abcbook-tune_id 67a7d9ec01f0c17a86533217
% abcbook-tune_composer_id 
% abcbook-link-0 https://www.youtube.com/watch?v=nbiv9LZDWkQ
% abcbook-link-title-0 Paddy on the Turnpike
% abcbook-boost 0
% abcbook-difficulty 0
% abcbook-tags old time tunes
% abcbook-tablature 
% abcbook-transpose 
% abcbook-tuning AEAE
% abcbook-lastupdated 1739217613061
% abcbook-src-url 
% abcbook-soundfonts 
% abcbook-repeats 1
% Titles One title
% Transcriptions Only 1 transcription
% Mode major
% Key A
% Time_signature 4/4
% Has_accompaniment_chords No chords

